icons/svg/16x16/briefcase/outline.svg

<svg width="16" height="16" fill="none" xmlns="http://www.w3.org/2000/svg">
  <path fill-rule="evenodd" clip-rule="evenodd" d="M8 13c-2.696 0-4.76-.307-6-.562L1.993 10H6v1a1 1 0 001 1h2a1 1 0 001-1v-1h4.01l.007 2.436C12.76 12.693 10.696 13 8 13zm0-7c2.696 0 4.76.307 6 .562L14.004 8H1.987l-.004-1.436C3.24 6.307 5.304 6 8 6zM6 3h4v1.055a36.762 36.762 0 00-4 0V3zm8.418 1.604A28.998 28.998 0 0012 4.226V3c0-1.103-.897-2-2-2H6c-1.103 0-2 .897-2 2v1.226c-.97.112-1.787.25-2.418.378A1.992 1.992 0 000 6.562v5.876c0 .946.656 1.767 1.582 1.958C2.947 14.675 5.148 15 8 15c2.852 0 5.053-.325 6.418-.604A1.992 1.992 0 0016 12.438V6.562c0-.946-.656-1.767-1.582-1.958z" fill="#000"/>
</svg>

<svg xmlns="http://www.w3.org/2000/svg" width="16" height="16" viewBox="0 0 16 16">
  <path fill-rule="evenodd" d="M8,13 C5.304,13 3.24,12.693 2,12.438 L1.993,10 L6,10 L6,11 C6,11.553 6.447,12 7,12 L9,12 C9.553,12 10,11.553 10,11 L10,10 L14.01,10 L14.017,12.436 C12.76,12.693 10.696,13 8,13 L8,13 Z M8,6 C10.696,6 12.76,6.307 14,6.562 L14.004,8 L1.987,8 L1.983,6.564 C3.24,6.307 5.304,6 8,6 L8,6 Z M6,3 L10,3 L10,4.055 C9.375,4.021 8.708,4 8,4 C7.292,4 6.625,4.021 6,4.055 L6,3 Z M14.418,4.604 C13.787,4.476 12.97,4.338 12,4.226 L12,3 C12,1.897 11.103,1 10,1 L6,1 C4.897,1 4,1.897 4,3 L4,4.226 C3.03,4.338 2.213,4.476 1.582,4.604 C0.656,4.795 0,5.616 0,6.562 L0,12.438 C0,13.384 0.656,14.205 1.582,14.396 C2.947,14.675 5.148,15 8,15 C10.852,15 13.053,14.675 14.418,14.396 C15.344,14.205 16,13.384 16,12.438 L16,6.562 C16,5.616 15.344,4.795 14.418,4.604 L14.418,4.604 Z"/>
</svg>
